client/public/img/game/shared/weapons/flues.svg

<?xml version="1.0" encoding="UTF-8" standalone="no"?>
<svg
   width="138.22701"
   height="110"
   viewBox="0 0 138.22701 110"
   fill="none"
   version="1.1"
   id="svg19"
   sodipodi:docname="flues.svg"
   inkscape:version="1.4 (86a8ad7, 2024-10-11)"
   xmlns:inkscape="http://www.inkscape.org/namespaces/inkscape"
   xmlns:sodipodi="http://sodipodi.sourceforge.net/DTD/sodipodi-0.dtd"
   xmlns="http://www.w3.org/2000/svg"
   xmlns:svg="http://www.w3.org/2000/svg">
  <sodipodi:namedview
     id="namedview19"
     pagecolor="#ffffff"
     bordercolor="#000000"
     borderopacity="0.25"
     inkscape:showpageshadow="2"
     inkscape:pageopacity="0.0"
     inkscape:pagecheckerboard="0"
     inkscape:deskcolor="#d1d1d1"
     inkscape:zoom="2.5937962"
     inkscape:cx="36.625853"
     inkscape:cy="101.20302"
     inkscape:window-width="1920"
     inkscape:window-height="1009"
     inkscape:window-x="-8"
     inkscape:window-y="-8"
     inkscape:window-maximized="1"
     inkscape:current-layer="svg19" />
  <g
     clip-path="url(#clip0_771_231)"
     id="g19"
     transform="rotate(30,62.121827,80.082329)">
    <path
       d="m 29.3057,67.4021 c 1.459,-1.2692 3.0603,-2.5492 4.8179,-3.831 -0.1015,0.2459 -0.2616,0.5167 -0.4717,0.8144 -0.2722,0.3858 -0.652,0.8495 -1.1594,1.4057 -1.6468,1.8074 -2.1061,3.2989 -2.1453,4.3657 -0.0394,1.076 0.3546,1.8104 0.525,2.0709 0.1451,0.222 0.1416,0.5116 0.0284,0.7328 -0.1167,0.2281 -0.3833,0.4001 -0.6841,0.395 l 0.0192,9e-4 c -0.5104,-0.0179 -1.0106,-0.4179 -1.4897,-1.2016 -0.17,-0.2768 -0.2385,-0.6019 -0.2602,-0.9111 -0.0222,-0.3152 0.0014,-0.6581 0.0506,-1.004 0.0983,-0.6914 0.3091,-1.4603 0.5386,-2.1648 0.0752,-0.2307 0.153,-0.4565 0.2307,-0.6729 z"
       fill="#3b3635"
       stroke="#363130"
       stroke-width="1.14999"
       stroke-miterlimit="3.99393"
       id="path1" />
    <path
       d="m 32.3561,64.898 c 0.0137,0.0835 0.0285,0.1699 0.0445,0.2582 0.0624,0.3451 0.1438,0.7266 0.2473,1.0824 0.1008,0.3468 0.2335,0.7084 0.4126,0.9897 0.3009,0.4724 0.7995,1.0633 1.3394,1.5494 0.2713,0.2444 0.5652,0.4733 0.8619,0.6494 0.289,0.1715 0.6222,0.318 0.9644,0.3472 0.133,0.0113 0.2634,0.013 0.3845,-0.0037 0.1128,-0.0155 0.2756,-0.0546 0.4192,-0.1722 0.1711,-0.1401 0.2514,-0.3396 0.2476,-0.5357 C 37.2744,68.8986 37.2141,68.7692 37.1741,68.6971 37.0928,68.5505 36.6722,68.193 36.5456,68.1028 36.5043,68.0734 36.4644,68.0461 36.4235,68.0181 36.3391,67.9603 36.2508,67.9 36.1398,67.8135 35.8078,67.555 35.3965,67.1798 35.056,66.7043 34.7165,66.2301 34.4583,65.672 34.4024,65.0387 c -0.0505,-0.5713 0.0599,-1.2431 0.481,-2.0162 -0.8796,0.6256 -1.7214,1.2511 -2.5273,1.8755 z"
       fill="#403b3a"
       stroke="#363130"
       stroke-width="1.14999"
       stroke-miterlimit="3.99393"
       id="path2" />
    <path
       d="m 41.4041,63.7408 c -0.504,-1.1342 -1.2579,-1.8334 -2.1606,-2.1539 -0.8703,-0.309 -1.1872,-0.5149 -1.7352,-0.5934 L 35.8,62.6178 c 0.5559,-0.1443 2.4388,0.4662 2.859,0.6153 0.3877,0.1377 0.8101,0.4551 1.1487,1.2171 0.6987,1.5723 0.3493,3.0397 -0.2329,4.1824 -0.2908,0.5706 -0.8954,1.4682 -1.2887,1.8017 -0.3684,0.3124 -1.5492,1.002 -2.1912,1.4103 -1.2873,0.8188 -2.8675,1.8059 -4.0699,2.5001 -1.1292,0.652 -1.9575,0.6091 -2.3109,0.6151 -0.2368,0.004 -1.1572,-0.3117 -1.5336,-0.4769 -0.7518,-0.3301 -1.7506,-0.7592 -2.7304,-1.1513 -1.2921,-0.5171 -1.9749,-1.0214 -1.9749,-1.0214 l -0.6365,1.8592 c 0,0 1.3199,0.527 1.9624,0.7841 0.9548,0.3821 1.9343,0.8027 2.6771,1.1289 0.3709,0.1628 1.0422,0.4814 1.2663,0.5639 0.2146,0.0789 0.7636,0.233 1.1275,0.2268 0.7266,-0.0123 1.7162,-0.259 3.0265,-1.0155 1.2371,-0.7142 2.844,-1.7185 4.134,-2.539 l 0.0405,-0.0258 c 0.6604,-0.4199 1.9504,-1.2403 2.3358,-1.6387 0.3935,-0.4066 1.3601,-1.5173 1.7224,-2.2284 0.724,-1.4206 1.2596,-3.4646 0.2729,-5.6849 z"
       fill="#433e3d"
       stroke="#363130"
       stroke-width="1.14999"
       stroke-miterlimit="3.99393"
       stroke-linecap="round"
       id="path3" />
    <path
       d="m 37.2556,44.4464 c 0,0 -9.031,6.5 -12.1035,9.9128 -0.1832,0.2067 -0.4181,0.3675 -0.6858,0.4716 -0.3055,0.126 -0.7921,0.3313 -1.5166,0.6487 -1.5435,0.6894 -1.784,1.4082 -1.784,1.4082 0,0 -1.2429,1.2975 0.048,2.2668 1.2908,0.9694 4.3869,-3.8439 4.3869,-3.8439 l 13.1289,-8.3112 z"
       fill="#403b3a"
       stroke="#363130"
       stroke-width="1.14999"
       stroke-miterlimit="3.99393"
       stroke-linecap="round"
       id="path4" />
    <path
       d="m 29.8894,52.6078 c 0,0 -2.7298,1.2987 -4.499,3.6061 -1.7692,2.3074 -17.62308,20.3109 -17.62308,20.3109 0,0 -9.08309,11.8251 -5.25832,22.2493 0,0 1.49599,3.2459 6.45063,0.3857 4.95467,-2.8606 5.05047,-5.6643 5.05047,-5.6643 0,0 -0.5819,-15.7256 22.1904,-31.0921 L 30.3702,52.305 Z"
       fill="#5c342b"
       id="path5" />
    <path
       d="m 20.2249,62.2848 c -1.8769,2.1642 -4.008,4.6053 -5.9702,6.8472 0.2571,-0.7434 0.9311,-2.7692 0.964,-3.6686 l 2.2338,-1.856 c 0,0 -0.3135,-1.6416 1.2449,-2.3971 0.7153,-0.344 1.2065,0.2929 1.5275,1.0745 z"
       fill="#524a48"
       stroke="#363130"
       stroke-width="1.14999"
       stroke-miterlimit="3.99393"
       stroke-linecap="round"
       id="path6" />
    <path
       d="m 10.614,73.2912 c 0,0 -8.1536,8.8931 -8.42445,14.9749 0,0 11.38065,2.3301 13.87105,-3.4447 2.4905,-5.7748 9.1845,-13.3965 9.1845,-13.3965 l -6.8893,2.0864 2.5511,-7.373 c 0.0378,-0.0218 -4.4051,-0.8607 -10.2929,7.1529 z"
       fill="#5c3b2b"
       stroke="#452d21"
       stroke-width="1.14999"
       stroke-miterlimit="3.99393"
       stroke-linecap="round"
       id="path7" />
    <path
       d="m 29.8894,52.6078 c 0,0 -2.7298,1.2987 -4.499,3.6061 -1.7692,2.3074 -17.62308,20.3109 -17.62308,20.3109 0,0 -9.08309,11.8251 -5.25832,22.2493 0,0 1.49599,3.2459 6.45063,0.3857 4.95467,-2.8606 5.05047,-5.6643 5.05047,-5.6643 0,0 -0.5819,-15.7256 22.1904,-31.0921 L 30.3702,52.305 Z"
       stroke="#462720"
       stroke-width="2.29999"
       stroke-miterlimit="3.99393"
       stroke-linecap="round"
       id="path8" />
    <path
       d="m 37.0595,47.7347 -6.6913,4.5692 5.8303,10.0984 c 0,0 24.5205,-15.0899 25.7048,-17.3621 L 59.2259,40.4027 41.3586,51.5562 c 0,0 -1.3773,1.5012 -4.2991,-3.8215 z"
       fill="#5d5655"
       id="path9" />
    <path
       d="m 37.493,59.6631 c 0.24,-0.1385 0.3222,-0.4454 0.1837,-0.6854 -0.1386,-0.24 -0.4455,-0.3222 -0.6855,-0.1837 -0.24,0.1386 -0.3222,0.4455 -0.1837,0.6855 0.1386,0.24 0.4455,0.3222 0.6855,0.1836 z"
       fill="#7e7472"
       id="path10" />
    <path
       d="m 41.2556,56.3569 c 0.3133,-0.1809 0.4207,-0.5815 0.2398,-0.8949 -0.1809,-0.3133 -0.5815,-0.4206 -0.8949,-0.2397 -0.3133,0.1809 -0.4206,0.5815 -0.2398,0.8948 0.1809,0.3134 0.5816,0.4207 0.8949,0.2398 z"
       fill="#7e7472"
       id="path11" />
    <path
       d="m 54.1224,44.1705 c -0.0927,0.0569 -0.1866,0.117 -0.2816,0.1803 0,0 2.0648,4.5839 -1.7696,7.8634 l -1.3601,0.9532 c 0.5199,-0.3002 0.9705,-0.62 1.3601,-0.9532 l 8.4412,-5.9159 c 0,0 -1.7151,-4.6804 -6.0321,-2.3349 z"
       fill="#585150"
       id="path12" />
    <path
       d="m 52.0712,52.2142 c 3.8344,-3.2795 1.7696,-7.8634 1.7696,-7.8634 0.095,-0.0633 0.1889,-0.1234 0.2816,-0.1803 l 0.3579,-0.2071 c 4.317,-2.3455 6.0321,2.3349 6.0321,2.3349 z m 0,0 -1.3601,0.9532 m 1.3601,-0.9532 c -0.3896,0.3332 -0.8402,0.653 -1.3601,0.9532 m 0,0 0.516,-0.2979"
       stroke="#363130"
       stroke-width="1.14999"
       stroke-miterlimit="3.99393"
       stroke-linecap="round"
       id="path13" />
    <path
       d="m 36.9075,43.8418 c 0,0 -1.1656,1.6059 0.4612,4.4237 1.6268,2.8177 2.5242,4.2411 3.9934,3.292 1.4692,-0.9491 66.5959,-40.8698 66.5959,-40.8698 0,0 -0.176,-2.9244 -3.155,-5.46524 z"
       fill="#514b49"
       stroke="#363130"
       stroke-width="1.14999"
       stroke-miterlimit="3.99393"
       stroke-linecap="round"
       id="path14" />
    <path
       d="m 36.9075,43.8418 4.4547,7.7158 c -1.4692,0.949 -2.3667,-0.4744 -3.9936,-3.2922 -1.6267,-2.8176 -0.4611,-4.4236 -0.4611,-4.4236 z"
       fill="#484342"
       stroke="#363130"
       stroke-width="1.14999"
       id="path15" />
    <path
       d="m 36.5452,48.0334 c -1.1799,-2.1494 0.3612,-4.1922 0.3612,-4.1922 L 104.802,5.2218 c 2.979,2.54084 3.155,5.4652 3.155,5.4652 0,0 -28.9257,17.7306 -48.6574,29.8398 l 2.6061,4.5138 C 60.7213,47.3129 36.2008,62.4028 36.2008,62.4028 L 30.3705,52.3044 Z"
       stroke="#363130"
       stroke-width="2.29999"
       stroke-miterlimit="3.99393"
       stroke-linecap="round"
       id="path16" />
    <path
       d="m 59.5805,41.0128 2.3256,4.0281 c 0,0 38.4389,-25.5715 41.2449,-29.1835 0,0 2.089,-2.1897 -1.201,-0.7693 L 58.9473,39.916 Z"
       fill="#5c342b"
       id="path17" />
    <path
       d="M 69.3632,39.8775 65.6426,38.8486 96.6004,21.1516 Z"
       fill="#5c3b2b"
       stroke="#462c20"
       stroke-width="1.14999"
       stroke-miterlimit="3.99393"
       stroke-linecap="round"
       id="path18" />
    <path
       d="m 59.5805,41.0128 2.3256,4.0281 c 0,0 38.4389,-25.5715 41.2449,-29.1835 0,0 2.089,-2.1897 -1.201,-0.7693 L 58.9473,39.916 Z"
       stroke="#462720"
       stroke-width="2.29999"
       stroke-miterlimit="3.99393"
       stroke-linecap="round"
       id="path19" />
  </g>
  <defs
     id="defs19">
    <clipPath
       id="clip0_771_231">
      <rect
         width="110"
         height="110"
         fill="#ffffff"
         id="rect19"
         x="0"
         y="0" />
    </clipPath>
  </defs>
</svg>

<svg width="110" height="110" viewBox="0 0 110 110" fill="none" xmlns="http://www.w3.org/2000/svg">
<g clip-path="url(#clip0_771_231)">
<path d="M29.3057 67.4021C30.7647 66.1329 32.366 64.8529 34.1236 63.5711C34.0221 63.817 33.862 64.0878 33.6519 64.3855C33.3797 64.7713 32.9999 65.235 32.4925 65.7912C30.8457 67.5986 30.3864 69.0901 30.3472 70.1569C30.3078 71.2329 30.7018 71.9673 30.8722 72.2278C31.0173 72.4498 31.0138 72.7394 30.9006 72.9606C30.7839 73.1887 30.5173 73.3607 30.2165 73.3556L30.2357 73.3565C29.7253 73.3386 29.2251 72.9386 28.746 72.1549C28.576 71.8781 28.5075 71.553 28.4858 71.2438C28.4636 70.9286 28.4872 70.5857 28.5364 70.2398C28.6347 69.5484 28.8455 68.7795 29.075 68.075C29.1502 67.8443 29.228 67.6185 29.3057 67.4021Z" fill="#3B3635" stroke="#363130" stroke-width="1.14999" stroke-miterlimit="3.99393"/>
<path d="M32.3561 64.898C32.3698 64.9815 32.3846 65.0679 32.4006 65.1562C32.463 65.5013 32.5444 65.8828 32.6479 66.2386C32.7487 66.5854 32.8814 66.947 33.0605 67.2283C33.3614 67.7007 33.86 68.2916 34.3999 68.7777C34.6712 69.0221 34.9651 69.251 35.2618 69.4271C35.5508 69.5986 35.884 69.7451 36.2262 69.7743C36.3592 69.7856 36.4896 69.7873 36.6107 69.7706C36.7235 69.7551 36.8863 69.716 37.0299 69.5984C37.201 69.4583 37.2813 69.2588 37.2775 69.0627C37.2744 68.8986 37.2141 68.7692 37.1741 68.6971C37.0928 68.5505 36.6722 68.193 36.5456 68.1028C36.5043 68.0734 36.4644 68.0461 36.4235 68.0181C36.3391 67.9603 36.2508 67.9 36.1398 67.8135C35.8078 67.555 35.3965 67.1798 35.056 66.7043C34.7165 66.2301 34.4583 65.672 34.4024 65.0387C34.3519 64.4674 34.4623 63.7956 34.8834 63.0225C34.0038 63.6481 33.162 64.2736 32.3561 64.898Z" fill="#403B3A" stroke="#363130" stroke-width="1.14999" stroke-miterlimit="3.99393"/>
<path d="M41.4041 63.7408C40.9001 62.6066 40.1462 61.9074 39.2435 61.5869C38.3732 61.2779 38.0563 61.072 37.5083 60.9935L35.8 62.6178C36.3559 62.4735 38.2388 63.084 38.659 63.2331C39.0467 63.3708 39.4691 63.6882 39.8077 64.4502C40.5064 66.0225 40.157 67.4899 39.5748 68.6326C39.284 69.2032 38.6794 70.1008 38.2861 70.4343C37.9177 70.7467 36.7369 71.4363 36.0949 71.8446C34.8076 72.6634 33.2274 73.6505 32.025 74.3447C30.8958 74.9967 30.0675 74.9538 29.7141 74.9598C29.4773 74.9638 28.5569 74.6481 28.1805 74.4829C27.4287 74.1528 26.4299 73.7237 25.4501 73.3316C24.158 72.8145 23.4752 72.3102 23.4752 72.3102L22.8387 74.1694C22.8387 74.1694 24.1586 74.6964 24.8011 74.9535C25.7559 75.3356 26.7354 75.7562 27.4782 76.0824C27.8491 76.2452 28.5204 76.5638 28.7445 76.6463C28.9591 76.7252 29.5081 76.8793 29.872 76.8731C30.5986 76.8608 31.5882 76.6141 32.8985 75.8576C34.1356 75.1434 35.7425 74.1391 37.0325 73.3186L37.073 73.2928C37.7334 72.8729 39.0234 72.0525 39.4088 71.6541C39.8023 71.2475 40.7689 70.1368 41.1312 69.4257C41.8552 68.0051 42.3908 65.9611 41.4041 63.7408Z" fill="#433E3D" stroke="#363130" stroke-width="1.14999" stroke-miterlimit="3.99393" stroke-linecap="round"/>
<path d="M37.2556 44.4464C37.2556 44.4464 28.2246 50.9464 25.1521 54.3592C24.9689 54.5659 24.734 54.7267 24.4663 54.8308C24.1608 54.9568 23.6742 55.1621 22.9497 55.4795C21.4062 56.1689 21.1657 56.8877 21.1657 56.8877C21.1657 56.8877 19.9228 58.1852 21.2137 59.1545C22.5045 60.1239 25.6006 55.3106 25.6006 55.3106L38.7295 46.9994L37.2556 44.4464Z" fill="#403B3A" stroke="#363130" stroke-width="1.14999" stroke-miterlimit="3.99393" stroke-linecap="round"/>
<path d="M29.8894 52.6078C29.8894 52.6078 27.1596 53.9065 25.3904 56.2139C23.6212 58.5213 7.76732 76.5248 7.76732 76.5248C7.76732 76.5248 -1.31577 88.3499 2.509 98.7741C2.509 98.7741 4.00499 102.02 8.95963 99.1598C13.9143 96.2992 14.0101 93.4955 14.0101 93.4955C14.0101 93.4955 13.4282 77.7699 36.2005 62.4034L30.3702 52.305L29.8894 52.6078Z" fill="#5C342B"/>
<path d="M20.2249 62.2848C18.348 64.449 16.2169 66.8901 14.2547 69.132C14.5118 68.3886 15.1858 66.3628 15.2187 65.4634L17.4525 63.6074C17.4525 63.6074 17.139 61.9658 18.6974 61.2103C19.4127 60.8663 19.9039 61.5032 20.2249 62.2848Z" fill="#524A48" stroke="#363130" stroke-width="1.14999" stroke-miterlimit="3.99393" stroke-linecap="round"/>
<path d="M10.614 73.2912C10.614 73.2912 2.4604 82.1843 2.18955 88.2661C2.18955 88.2661 13.5702 90.5962 16.0606 84.8214C18.5511 79.0466 25.2451 71.4249 25.2451 71.4249L18.3558 73.5113L20.9069 66.1383C20.9447 66.1165 16.5018 65.2776 10.614 73.2912Z" fill="#5C3B2B" stroke="#452D21" stroke-width="1.14999" stroke-miterlimit="3.99393" stroke-linecap="round"/>
<path d="M29.8894 52.6078C29.8894 52.6078 27.1596 53.9065 25.3904 56.2139C23.6212 58.5213 7.76732 76.5248 7.76732 76.5248C7.76732 76.5248 -1.31577 88.3499 2.509 98.7741C2.509 98.7741 4.00499 102.02 8.95963 99.1598C13.9143 96.2992 14.0101 93.4955 14.0101 93.4955C14.0101 93.4955 13.4282 77.7699 36.2005 62.4034L30.3702 52.305L29.8894 52.6078Z" stroke="#462720" stroke-width="2.29999" stroke-miterlimit="3.99393" stroke-linecap="round"/>
<path d="M37.0595 47.7347L30.3682 52.3039L36.1985 62.4023C36.1985 62.4023 60.719 47.3124 61.9033 45.0402L59.2259 40.4027L41.3586 51.5562C41.3586 51.5562 39.9813 53.0574 37.0595 47.7347Z" fill="#5D5655"/>
<path d="M37.493 59.6631C37.733 59.5246 37.8152 59.2177 37.6767 58.9777C37.5381 58.7377 37.2312 58.6555 36.9912 58.794C36.7512 58.9326 36.669 59.2395 36.8075 59.4795C36.9461 59.7195 37.253 59.8017 37.493 59.6631Z" fill="#7E7472"/>
<path d="M41.2556 56.3569C41.5689 56.176 41.6763 55.7754 41.4954 55.462C41.3145 55.1487 40.9139 55.0414 40.6005 55.2223C40.2872 55.4032 40.1799 55.8038 40.3607 56.1171C40.5416 56.4305 40.9423 56.5378 41.2556 56.3569Z" fill="#7E7472"/>
<path d="M54.1224 44.1705C54.0297 44.2274 53.9358 44.2875 53.8408 44.3508C53.8408 44.3508 55.9056 48.9347 52.0712 52.2142L50.7111 53.1674C51.231 52.8672 51.6816 52.5474 52.0712 52.2142L60.5124 46.2983C60.5124 46.2983 58.7973 41.6179 54.4803 43.9634L54.1224 44.1705Z" fill="#585150"/>
<path d="M52.0712 52.2142C55.9056 48.9347 53.8408 44.3508 53.8408 44.3508C53.9358 44.2875 54.0297 44.2274 54.1224 44.1705L54.4803 43.9634C58.7973 41.6179 60.5124 46.2983 60.5124 46.2983L52.0712 52.2142ZM52.0712 52.2142L50.7111 53.1674M52.0712 52.2142C51.6816 52.5474 51.231 52.8672 50.7111 53.1674M50.7111 53.1674L51.2271 52.8695" stroke="#363130" stroke-width="1.14999" stroke-miterlimit="3.99393" stroke-linecap="round"/>
<path d="M36.9075 43.8418C36.9075 43.8418 35.7419 45.4477 37.3687 48.2655C38.9955 51.0832 39.8929 52.5066 41.3621 51.5575C42.8313 50.6084 107.958 10.6877 107.958 10.6877C107.958 10.6877 107.782 7.7633 104.803 5.22246L36.9075 43.8418Z" fill="#514B49" stroke="#363130" stroke-width="1.14999" stroke-miterlimit="3.99393" stroke-linecap="round"/>
<path d="M36.9075 43.8418L41.3622 51.5576C39.893 52.5066 38.9955 51.0832 37.3686 48.2654C35.7419 45.4478 36.9075 43.8418 36.9075 43.8418Z" fill="#484342" stroke="#363130" stroke-width="1.14999"/>
<path d="M36.5452 48.0334C35.3653 45.884 36.9064 43.8412 36.9064 43.8412L104.802 5.2218C107.781 7.76264 107.957 10.687 107.957 10.687C107.957 10.687 79.0313 28.4176 59.2996 40.5268L61.9057 45.0406C60.7213 47.3129 36.2008 62.4028 36.2008 62.4028L30.3705 52.3044L36.5452 48.0334Z" stroke="#363130" stroke-width="2.29999" stroke-miterlimit="3.99393" stroke-linecap="round"/>
<path d="M59.5805 41.0128L61.9061 45.0409C61.9061 45.0409 100.345 19.4694 103.151 15.8574C103.151 15.8574 105.24 13.6677 101.95 15.0881L58.9473 39.916L59.5805 41.0128Z" fill="#5C342B"/>
<path d="M69.3632 39.8775L65.6426 38.8486L96.6004 21.1516L69.3632 39.8775Z" fill="#5C3B2B" stroke="#462C20" stroke-width="1.14999" stroke-miterlimit="3.99393" stroke-linecap="round"/>
<path d="M59.5805 41.0128L61.9061 45.0409C61.9061 45.0409 100.345 19.4694 103.151 15.8574C103.151 15.8574 105.24 13.6677 101.95 15.0881L58.9473 39.916L59.5805 41.0128Z" stroke="#462720" stroke-width="2.29999" stroke-miterlimit="3.99393" stroke-linecap="round"/>
</g>
<defs>
<clipPath id="clip0_771_231">
<rect width="110" height="110" fill="white"/>
</clipPath>
</defs>
</svg>
